X: 322
%
U:~=!turn!
U:t=!tenuto!
T: Lalla Since the Queen's Come
C:James Scott Skinner
O:Scotland
B:Keith Norman MacDonald : "The Skye collection of the best reels & strathspeys extant" : 1887
Z:Ralph Palmer
N:I don't know what key this should really be; almost like C lydian, with accidentals.
R:Strathspey
M:C
L:1/8
K:D
(F<A) (tA>.=c) (tB>.G) A2 | F<A A>=c B>G A<d | F<A A>=c B>G A2 | E<=c ~c>G E2 =C2 :|
!f!LA>d (c<d) A<D F2 | LA>d (c<d) A<D F<A | LA>d c<d A<D F2 | TE<=c c>G E2 =C>E |
LA>d (c<d) A<D F2 | LA>d (c<d) A<D F<A | LA>d (c<e) (3dcB (3AGF | TE<~=c c>G E2 !D.C.!=C2 |]


